COLOR/action 16/16/image.svg

<svg height="16" width="16" xmlns="http://www.w3.org/2000/svg"><path d="m15.499789 5.0961063c0-.710449-.0154-1.2733845-.09569-1.7518736-.080306-.4784892-.237282-.896671-.54688-1.2069774-.309593-.3103065-.7261-.4672397-1.205077-.5468562-.478966-.0795965-1.043513-.0932959-1.755848-.0897961h-3.8964518-3.8984125c-.7112051-.003-1.2754511.0103-1.7538877.089796-.4789766.0795966-.8954837.2365398-1.2050715.5468563-.30959785.3103164-.46654674.7284782-.54687617 1.2069774-.08029944.4784991-.09569933 1.0414246-.09569933 1.7518736v5.8083467c0 .710449.0152999 1.272304.0956993 1.749923.0803994.47761.23712833.895801.5468762 1.205028.3097478.309196.7268048.46467 1.2050715.544896.4782566.0802 1.0420027.0957 1.7538877.0957h3.8984125 3.8984118c.711885 0 1.275632-.0155 1.753888-.0957.478267-.0802.895324-.23569 1.205072-.544896.309748-.309227.466497-.727418.546876-1.205028.0804-.477619.09569-1.039474.09569-1.749923z" fill="#c43ac4"/><path d="m10.856965 4.5716317c-.631173 0-1.1428492.5116463-1.1428492 1.1428074 0 .6311497.5116762 1.1428074 1.1428492 1.1428074.631172 0 1.142849-.5116577 1.142849-1.1428074 0-.6311611-.511654-1.1428074-1.142849-1.1428074zm-4.0178289 1.417349-2.8392657 5.4394953h2.6651599 4.1963987l-2.0981992-4.0221463-.5915137 1.133879z" fill="#fff"/><path d="m4.1015371 1.5004865c-.711205-.003-1.2754573.010343-1.7538939.08984-.4789765.0795963-.8954818.2365346-1.2050696.5468511-.30959782.3103163-.46654173.7284794-.54687116 1.2069786-.08029943.4784991-.09570244 1.0414277-.09570244 1.7518767v.4999782c0-.710449.015403-1.2733776.0957024-1.7518767.08032947-.4784992.23727338-.8966622.5468712-1.2069786.3095878-.3103166.7260931-.4672548 1.2050696-.5468512.4784366-.0794966 1.0426889-.0928397 1.7538939-.0898399h3.8984101 3.8964558c.712335-.0035 1.276882.010243 1.755848.08984.478977.079616.895482.2365447 1.20507.5468512.309598.3103065.466572.7284894.546871 1.2069786.0803.4784891.0957 1.0414277.0957 1.7518767v-.4999783c0-.710449-.0154-1.2733876-.0957-1.7518767-.080299-.4784892-.237273-.8966722-.546871-1.2069786-.309588-.3103065-.726093-.4672347-1.20507-.5468512-.478966-.0795965-1.043513-.0933397-1.755848-.0898399h-3.8964558z" fill="#fff" opacity=".3"/><path d="m.5 10.404395v.499979c0 .710449.015303 1.272304.0957024 1.749923.0803994.47761.23712334.895799.5468712 1.205026.3097478.309196.726803.464672 1.2050696.544898.4782567.0802 1.042009.0957 1.7538939.0957h3.8984101 3.8984098c.711885 0 1.275638-.0155 1.753894-.0957.478267-.0802.895322-.235692 1.20507-.544898.309748-.309227.466492-.727416.546871-1.205026.0804-.477619.0957-1.039474.0957-1.749923v-.499978c0 .71045-.0153 1.272305-.0957 1.749924-.08038.477609-.237123.895799-.546871 1.205026-.309748.309206-.726803.464701-1.20507.544898-.478256.0802-1.042009.0957-1.753894.0957h-3.8984098-3.8984101c-.7118849 0-1.2756372-.0155-1.7538939-.0957-.4782666-.080228-.8953218-.235703-1.2050696-.544899-.30974782-.309227-.46647171-.727417-.54687116-1.205026-.08039943-.477619-.09570244-1.039474-.09570244-1.749924z" opacity=".2"/></svg>

<?xml version="1.0" encoding="UTF-8" standalone="no"?>
<svg
   xmlns:osb="http://www.openswatchbook.org/uri/2009/osb"
   xmlns:dc="http://purl.org/dc/elements/1.1/"
   xmlns:cc="http://creativecommons.org/ns#"
   xmlns:rdf="http://www.w3.org/1999/02/22-rdf-syntax-ns#"
   xmlns:svg="http://www.w3.org/2000/svg"
   xmlns="http://www.w3.org/2000/svg"
   xmlns:sodipodi="http://sodipodi.sourceforge.net/DTD/sodipodi-0.dtd"
   xmlns:inkscape="http://www.inkscape.org/namespaces/inkscape"
   width="16"
   height="16"
   version="1.1"
   id="svg19"
   sodipodi:docname="image.svg"
   inkscape:version="0.92.4 (5da689c313, 2019-01-14)">
  <metadata
     id="metadata23">
    <rdf:RDF>
      <cc:Work
         rdf:about="">
        <dc:format>image/svg+xml</dc:format>
        <dc:type
           rdf:resource="http://purl.org/dc/dcmitype/StillImage" />
        <dc:title />
      </cc:Work>
    </rdf:RDF>
  </metadata>
  <sodipodi:namedview
     pagecolor="#ffffff"
     bordercolor="#666666"
     borderopacity="1"
     objecttolerance="10"
     gridtolerance="10"
     guidetolerance="10"
     inkscape:pageopacity="0"
     inkscape:pageshadow="2"
     inkscape:window-width="1920"
     inkscape:window-height="1016"
     id="namedview21"
     showgrid="false"
     inkscape:zoom="52.4375"
     inkscape:cx="8"
     inkscape:cy="8"
     inkscape:window-x="0"
     inkscape:window-y="27"
     inkscape:window-maximized="1"
     inkscape:current-layer="svg19" />
  <defs
     id="defs9">
    <linearGradient
       id="linearGradient5606"
       osb:paint="solid">
      <stop
         id="stop5608"
         offset="0"
         style="stop-color:#000000" />
    </linearGradient>
    <linearGradient
       id="linearGradient4526"
       osb:paint="solid">
      <stop
         id="stop4528"
         offset="0"
         style="stop-color:#ffffff" />
    </linearGradient>
    <linearGradient
       id="linearGradient3600-4"
       osb:paint="gradient">
      <stop
         id="stop3602-7"
         offset="0"
         style="stop-color:#f4f4f4" />
      <stop
         id="stop3604-6"
         offset="1"
         style="stop-color:#dbdbdb" />
    </linearGradient>
    <clipPath
       clipPathUnits="userSpaceOnUse"
       id="clipPath983">
      <path
         sodipodi:nodetypes="scccssscsss"
         inkscape:connector-curvature="0"
         id="path985"
         d="m 325.09646,237 c -2.80769,0 -3.10979,0.28839 -3.09603,3.10176 V 244 v 3.89824 c -0.0138,2.81337 0.28834,3.10176 3.09603,3.10176 h 5.8075 C 333.71166,251 334,250.71165 334,247.89824 V 244 240.10176 C 334,237.28836 333.71165,237 330.90396,237 Z"
         style="color:#000000;display:inline;overflow:visible;visibility:visible;opacity:1;fill:#46a926;fill-opacity:1;fill-rule:nonzero;stroke:none;stroke-width:2;stroke-miterlimit:4;stroke-dasharray:none;stroke-opacity:1;marker:none;enable-background:accumulate" />
    </clipPath>
  </defs>
  <path
     style="color:#000000;display:inline;overflow:visible;visibility:visible;fill:#9b33ae;fill-opacity:1;fill-rule:nonzero;stroke:none;stroke-width:0.99997467;marker:none;enable-background:accumulate"
     d="m 15.499789,5.0961063 c 0,-0.710449 -0.0154,-1.2733845 -0.09569,-1.7518736 C 15.323793,2.8657435 15.166817,2.4475617 14.857219,2.1372553 14.547626,1.8269488 14.131119,1.6700156 13.652142,1.5903991 13.173176,1.5108026 12.608629,1.4971032 11.896294,1.500603 H 7.9998422 4.1014297 C 3.3902246,1.497603 2.8259786,1.510903 2.347542,1.590399 1.8685654,1.6699956 1.4520583,1.8269388 1.1424705,2.1372553 0.83287265,2.4475717 0.67592376,2.8657335 0.59559433,3.3442327 0.51529489,3.8227318 0.499895,4.3856573 0.499895,5.0961063 v 5.8083467 c 0,0.710449 0.0152999,1.272304 0.0956993,1.749923 0.0803994,0.47761 0.23712833,0.895801 0.5468762,1.205028 C 1.4522183,14.1686 1.8692753,14.324074 2.347542,14.4043 2.8257986,14.4845 3.3895447,14.5 4.1014297,14.5 h 3.8984125 3.8984118 c 0.711885,0 1.275632,-0.0155 1.753888,-0.0957 0.478267,-0.0802 0.895324,-0.23569 1.205072,-0.544896 0.309748,-0.309227 0.466497,-0.727418 0.546876,-1.205028 0.0804,-0.477619 0.09569,-1.039474 0.09569,-1.749923 z"
     id="path918"
     inkscape:connector-curvature="0" />
  <path
     style="color:#000000;display:inline;overflow:visible;visibility:visible;opacity:1;fill:#ffffff;fill-opacity:1;fill-rule:nonzero;stroke:none;stroke-width:18.28524208;marker:none;enable-background:accumulate"
     d="m 10.856965,4.5716317 c -0.631173,0 -1.1428492,0.5116463 -1.1428492,1.1428074 0,0.6311497 0.5116762,1.1428074 1.1428492,1.1428074 0.631172,0 1.142849,-0.5116577 1.142849,-1.1428074 0,-0.6311611 -0.511654,-1.1428074 -1.142849,-1.1428074 z M 6.8391361,5.9889807 3.9998704,11.428476 H 6.6650303 10.861429 L 8.7632298,7.4063297 8.1717161,8.5402087 Z"
     id="path1099"
     inkscape:connector-curvature="0" />
  <g
     id="g1034"
     transform="matrix(0,0.99995642,0.99999295,0,-235.99843,-319.98543)"
     style="display:inline;opacity:0.1;enable-background:new" />
  <path
     style="color:#000000;display:inline;overflow:visible;visibility:visible;opacity:0.3;fill:#ffffff;fill-opacity:1;fill-rule:nonzero;stroke:none;stroke-width:0.99997467;marker:none;enable-background:accumulate"
     d="m 4.1015371,1.5004865 c -0.711205,-0.003 -1.2754573,0.010343 -1.7538939,0.08984 C 1.8686667,1.6699228 1.4521614,1.8268611 1.1425736,2.1371776 0.83297578,2.4474939 0.67603187,2.865657 0.59570244,3.3441562 0.51540301,3.8226553 0.5,4.3855839 0.5,5.0960329 V 5.5960111 C 0.5,4.8855621 0.515403,4.3226335 0.5957024,3.8441344 0.67603187,3.3656352 0.83297578,2.9474722 1.1425736,2.6371558 1.4521614,2.3268392 1.8686667,2.169901 2.3476432,2.0903046 2.8260798,2.010808 3.3903321,1.9974649 4.1015371,2.0004647 h 3.8984101 3.8964558 c 0.712335,-0.0035 1.276882,0.010243 1.755848,0.08984 0.478977,0.079616 0.895482,0.2365447 1.20507,0.5468512 0.309598,0.3103065 0.466572,0.7284894 0.546871,1.2069786 0.0803,0.4784891 0.0957,1.0414277 0.0957,1.7518767 V 5.0960329 c 0,-0.710449 -0.0154,-1.2733876 -0.0957,-1.7518767 C 15.323893,2.865667 15.166919,2.447484 14.857321,2.1371776 14.547733,1.8268711 14.131228,1.6699429 13.652251,1.5903264 13.173285,1.5107299 12.608738,1.4969867 11.896403,1.5004865 H 7.9999472 Z"
     id="path851"
     inkscape:connector-curvature="0" />
  <path
     style="color:#000000;display:inline;overflow:visible;visibility:visible;opacity:0.2;fill:#000000;fill-opacity:1;fill-rule:nonzero;stroke:none;stroke-width:0.99997467;marker:none;enable-background:accumulate"
     d="m 0.5,10.404395 v 0.499979 c 0,0.710449 0.015303,1.272304 0.0957024,1.749923 0.0803994,0.47761 0.23712334,0.895799 0.5468712,1.205026 0.3097478,0.309196 0.726803,0.464672 1.2050696,0.544898 0.4782567,0.0802 1.042009,0.0957 1.7538939,0.0957 h 3.8984101 3.8984098 c 0.711885,0 1.275638,-0.0155 1.753894,-0.0957 0.478267,-0.0802 0.895322,-0.235692 1.20507,-0.544898 0.309748,-0.309227 0.466492,-0.727416 0.546871,-1.205026 0.0804,-0.477619 0.0957,-1.039474 0.0957,-1.749923 v -0.499978 c 0,0.71045 -0.0153,1.272305 -0.0957,1.749924 -0.08038,0.477609 -0.237123,0.895799 -0.546871,1.205026 -0.309748,0.309206 -0.726803,0.464701 -1.20507,0.544898 -0.478256,0.0802 -1.042009,0.0957 -1.753894,0.0957 H 7.9999472 4.1015371 c -0.7118849,0 -1.2756372,-0.0155 -1.7538939,-0.0957 C 1.8693766,13.824016 1.4523214,13.668541 1.1425736,13.359345 0.83282578,13.050118 0.67610189,12.631928 0.59570244,12.154319 0.51530301,11.6767 0.5,11.114845 0.5,10.404395 Z"
     id="path856"
     inkscape:connector-curvature="0" />
</svg>
